!!!OTL: Der Spielmannssohn.
!!!OTL-incipit: Als ich ein kleines Buewele war,
!!!ARE: Europa, Mitteleuropa, Deutschland / France, Lothringen
!!!YOR: 3, S. 178
!!    ????
!!!SCT: Q0062J
!!!YEM: Copyright 1995, estate of Helmut Schaffrath.
**kern
*ICvox
*M6/8
*k[b-e-]
*B-:
!LO:TX:a:t=Schnell
!LO:TX:a:t=O
{8ff
=1
8ee-
8dd
8cc
8b-
8b-
8b-
=2
8cc
8cc
8cc
4f}
{8f
=3
[8b-
8b-]
8b-
8cc
8cc
8cc
=4
8ff
8ff
8ff
4cc}
{8f
=5
[8b-
8b-]
8b-
8cc
8cc
8cc
=6
8ff
8ff
8ff
4cc}
{8f
=7
[8b-
8b-]
8b-
8cc
8cc
8cc
=8
8ff
8ff
8ff
4cc}
{8ff
=9
8ee-
8dd
8cc
8a
8b-
8b-
=10
8cc
8cc
8cc
4f}
{8f
=11
8b-
16b-
16b-
8b-
8a
8b-
8cc
=12
4.ff
4cc}
==
!!!AGN: Ballade, Verfuehrung, Standesunterschied, Strafe, Gnade
!! Ersten Notenwert der 2. bis 4. Zeile rhythmisch korrigiert.
!!    In der Edition untextiert.
!!!ONB: ESAC (Essen Associative Code) Database: BALLADE
!!!AMT: compound duple
!!!AIN: vox
!!!EED: Helmut Schaffrath
!!!EEV: 1.0
!!!source: Deutsche Volkslieder mit ihren Melodien. Herausgegeben vom Deutschen Volksliedarchiv. Dritter Band Balladen. Berlin 1954.
!!!page: 178
!!!ENC: Anna Maria Matuszewska
!!!EEV: 2025/02/21
*-
